src/img/star.svg

<svg viewBox="0 0 487.2 484.8" xmlns="http://www.w3.org/2000/svg"><path d="m486.6 184.4a13.9 13.9 0 0 0 -10.9-9.6l-152-22.5-68.4-143.3a13.5 13.5 0 0 0 -12.1-7.8 13.4 13.4 0 0 0 -12.1 7.9l-67.5 143.7-152 23.6a13.7 13.7 0 0 0 -10.9 9.6 14.4 14.4 0 0 0 3.5 14.4l110.3 111.4-25.5 157.7a14.2 14.2 0 0 0 5.4 13.8 12.8 12.8 0 0 0 7.9 2.7 11.9 11.9 0 0 0 6.3-1.7l135.7-74.9 136.1 74.1a13.9 13.9 0 0 0 6.2 1.6c7.4 0 13.5-6.4 13.5-14.1a10.8 10.8 0 0 0 -.4-3.2l-26.3-156.9 109.6-112a14.2 14.2 0 0 0 3.6-14.5zm-137 111.6a14.3 14.3 0 0 0 -3.8 12.5l22.9 136.9-118.2-64.3a13.1 13.1 0 0 0 -12.6 0l-117.8 65 22.1-137a14.4 14.4 0 0 0 -3.9-12.4l-95.6-96.8 131.9-20.4a13.3 13.3 0 0 0 10.1-7.7l58.4-124.9 59.6 124.6a13.6 13.6 0 0 0 10.2 7.7l132 19.6z" fill="#fff" transform="translate(0 -1.2)"/><path d="m302.3 171.2-59.2-124.3-58.8 124.6a13.3 13.3 0 0 1 -10.1 7.7l-131.9 20.5 95.6 96.7a14.4 14.4 0 0 1 3.9 12.4l-22.1 137 117.8-65a13.1 13.1 0 0 1 12.6 0l118.2 64.3-22.9-136.8a14.2 14.2 0 0 1 3.8-12.5l95.3-97.3-132-19.6a13.6 13.6 0 0 1 -10.2-7.7z" fill="#d82805" transform="translate(0 -1.2)"/><text fill="#f8f8ff" font-family="MicrosoftSansSerif, Microsoft Sans Serif" font-size="161.82" transform="matrix(1.19 0 0 1 190.1 317.1)">1</text></svg>

<svg id="Capa_1" data-name="Capa 1" xmlns="http://www.w3.org/2000/svg" viewBox="0 0 487.2 484.8"><defs><style>.cls-1{fill:#fff;}.cls-2{fill:#d82805;}.cls-3{font-size:161.82px;fill:#f8f8ff;font-family:MicrosoftSansSerif, Microsoft Sans Serif;}</style></defs><title>star</title><path class="cls-1" d="M486.6,184.4a13.9,13.9,0,0,0-10.9-9.6l-152-22.5L255.3,9a13.5,13.5,0,0,0-12.1-7.8h0a13.4,13.4,0,0,0-12.1,7.9L163.6,152.8l-152,23.6A13.7,13.7,0,0,0,.7,186a14.4,14.4,0,0,0,3.5,14.4L114.5,311.8,89,469.5a14.2,14.2,0,0,0,5.4,13.8,12.8,12.8,0,0,0,7.9,2.7,11.9,11.9,0,0,0,6.3-1.7l135.7-74.9,136.1,74.1a13.9,13.9,0,0,0,6.2,1.6h0c7.4,0,13.5-6.4,13.5-14.1a10.8,10.8,0,0,0-.4-3.2L373.4,310.9,483,198.9A14.2,14.2,0,0,0,486.6,184.4ZM349.6,296a14.3,14.3,0,0,0-3.8,12.5l22.9,136.9L250.5,381.1a13.1,13.1,0,0,0-12.6,0l-117.8,65,22.1-137a14.4,14.4,0,0,0-3.9-12.4L42.7,199.9l131.9-20.4a13.3,13.3,0,0,0,10.1-7.7L243.1,46.9l59.6,124.6a13.6,13.6,0,0,0,10.2,7.7l132,19.6Z" transform="translate(0 -1.2)"/><path id="inside" class="cls-2" d="M302.3,171.2,243.1,46.9,184.3,171.5a13.3,13.3,0,0,1-10.1,7.7L42.3,199.7l95.6,96.7a14.4,14.4,0,0,1,3.9,12.4l-22.1,137,117.8-65a13.1,13.1,0,0,1,12.6,0l118.2,64.3L345.4,308.3a14.2,14.2,0,0,1,3.8-12.5l95.3-97.3-132-19.6A13.6,13.6,0,0,1,302.3,171.2Z" transform="translate(0 -1.2)"/><text class="cls-3" transform="translate(190.1 317.1) scale(1.19 1)">1</text></svg>
